X:103
T:Row well ye Marriners
R:Jig
M:6/8
L:1/8
Q:110
K:G
G|F2E F2G|A3 A2B|cdc BAB|A2G G2:|
d|ded A2B|cdB A2G|GAG F2G|AFD G3||
d3A3|d3A3|d2e d2c|B2A G3||

